images/zhuyin/25.svg

<svg width="50" height="50" viewBox="0 0 50 50" fill="none" xmlns="http://www.w3.org/2000/svg">
<path d="M30.625 14.6562C31 14.6562 31.4219 14.8984 31.8906 15.3828C32.4219 15.9922 32.6875 16.4688 32.6875 16.8125C32.6875 17.1562 32.5 17.4297 32.125 17.6328C31.6406 17.7578 31.1094 18.2734 30.5312 19.1797C29.2031 21.0078 28.0391 22.3516 27.0391 23.2109C26.6953 23.5391 26.5234 24.0625 26.5234 24.7812C26.5234 28.9375 26.5625 31.5391 26.6406 32.5859C26.6719 32.9297 26.6875 33.1797 26.6875 33.3359C26.6875 33.6953 26.5625 34.0938 26.3125 34.5312C26.1562 34.7812 26 34.9062 25.8438 34.9062C25.625 34.9062 25.3672 34.7188 25.0703 34.3438C24.7109 33.8281 24.5312 33.3906 24.5312 33.0312L24.625 31.7656C24.6875 31.0938 24.7188 29.1719 24.7188 26C24.7188 25.0469 24.4844 24.3203 24.0156 23.8203C22.2969 22.1641 20.6875 20.4453 19.1875 18.6641C18.625 17.9297 18.1406 17.3828 17.7344 17.0234C17.3281 16.7266 17.125 16.5078 17.125 16.3672C17.125 16.0703 17.2266 15.875 17.4297 15.7812C17.7422 15.6562 18.1406 15.5938 18.625 15.5938C19.3594 15.5938 19.8359 15.6562 20.0547 15.7812C20.2734 15.9375 20.4766 16.2734 20.6641 16.7891C20.8516 17.4453 21.5078 18.4922 22.6328 19.9297C23.6172 21.2734 24.625 22.3594 25.6562 23.1875C26.5312 22.0625 27.5078 20.4922 28.5859 18.4766C29.2109 17.3516 29.6641 16.3047 29.9453 15.3359C30.1172 14.8828 30.3438 14.6562 30.625 14.6562Z" fill="#333333"/>
<path d="M31.8906 15.3828L32.2675 15.0542L32.259 15.0444L32.2499 15.0351L31.8906 15.3828ZM32.125 17.6328L32.2499 18.117L32.3093 18.1016L32.3631 18.0725L32.125 17.6328ZM30.5312 19.1797L30.9358 19.4736L30.9447 19.4613L30.9528 19.4486L30.5312 19.1797ZM27.0391 23.2109L26.7132 22.8317L26.7033 22.8402L26.6938 22.8493L27.0391 23.2109ZM26.6406 32.5859L26.1419 32.6232L26.1427 32.6312L26.6406 32.5859ZM26.3125 34.5312L26.7365 34.7962L26.7417 34.7879L26.7466 34.7793L26.3125 34.5312ZM25.0703 34.3438L24.6601 34.6296L24.6688 34.6422L24.6783 34.6541L25.0703 34.3438ZM24.5312 33.0312L24.0326 32.9943L24.0312 33.0128V33.0312H24.5312ZM24.625 31.7656L24.1271 31.7193L24.1264 31.7287L24.625 31.7656ZM24.0156 23.8203L24.3804 23.4783L24.3717 23.4691L24.3626 23.4603L24.0156 23.8203ZM19.1875 18.6641L18.7906 18.9681L18.7976 18.9773L18.805 18.9861L19.1875 18.6641ZM17.7344 17.0234L18.0657 16.6489L18.0482 16.6335L18.0294 16.6197L17.7344 17.0234ZM17.4297 15.7812L17.244 15.317L17.2319 15.3218L17.2202 15.3273L17.4297 15.7812ZM20.0547 15.7812L20.3453 15.3744L20.3247 15.3597L20.3028 15.3471L20.0547 15.7812ZM20.6641 16.7891L21.1448 16.6517L21.14 16.6348L21.134 16.6182L20.6641 16.7891ZM22.6328 19.9297L23.0362 19.6342L23.0315 19.6278L23.0266 19.6215L22.6328 19.9297ZM25.6562 23.1875L25.3432 23.5774L25.7391 23.8953L26.0509 23.4945L25.6562 23.1875ZM28.5859 18.4766L28.1488 18.2337L28.145 18.2407L28.5859 18.4766ZM29.9453 15.3359L29.4778 15.1586L29.4707 15.1773L29.4651 15.1965L29.9453 15.3359ZM30.625 15.1562C30.79 15.1562 31.0878 15.2722 31.5313 15.7305L32.2499 15.0351C31.756 14.5247 31.21 14.1562 30.625 14.1562V15.1562ZM31.5137 15.7114C31.7663 16.0011 31.9416 16.2435 32.0515 16.4407C32.1649 16.644 32.1875 16.7618 32.1875 16.8125H33.1875C33.1875 16.5195 33.0773 16.2271 32.925 15.9538C32.7693 15.6744 32.5462 15.3739 32.2675 15.0542L31.5137 15.7114ZM32.1875 16.8125C32.1875 16.9259 32.1464 17.0526 31.8869 17.1932L32.3631 18.0725C32.8536 17.8068 33.1875 17.3866 33.1875 16.8125H32.1875ZM32.0001 17.1487C31.6429 17.2408 31.3152 17.4632 31.015 17.7545C30.7122 18.0485 30.4112 18.4383 30.1097 18.9108L30.9528 19.4486C31.2295 19.0149 31.4831 18.6937 31.7115 18.4721C31.9426 18.2477 32.1227 18.1498 32.2499 18.117L32.0001 17.1487ZM30.1267 18.8858C28.8077 20.7014 27.6702 22.0093 26.7132 22.8317L27.3649 23.5901C28.408 22.6938 29.5985 21.3142 30.9358 19.4736L30.1267 18.8858ZM26.6938 22.8493C26.2103 23.3108 26.0234 23.9953 26.0234 24.7812H27.0234C27.0234 24.1297 27.1804 23.7673 27.3843 23.5726L26.6938 22.8493ZM26.0234 24.7812C26.0234 28.9307 26.0622 31.5535 26.142 32.6231L27.1392 32.5487C27.0628 31.5246 27.0234 28.9443 27.0234 24.7812H26.0234ZM26.1427 32.6312C26.1738 32.9734 26.1875 33.2041 26.1875 33.3359H27.1875C27.1875 33.1553 27.17 32.886 27.1386 32.5407L26.1427 32.6312ZM26.1875 33.3359C26.1875 33.5802 26.1017 33.8924 25.8784 34.2832L26.7466 34.7793C27.0233 34.2951 27.1875 33.8104 27.1875 33.3359H26.1875ZM25.8885 34.2663C25.8275 34.3639 25.7843 34.4072 25.7658 34.4221C25.7511 34.4338 25.7797 34.4062 25.8438 34.4062V35.4062C26.2808 35.4062 26.567 35.0674 26.7365 34.7962L25.8885 34.2663ZM25.8438 34.4062C25.8785 34.4062 25.8613 34.4201 25.7804 34.3613C25.7017 34.304 25.5951 34.2012 25.4623 34.0334L24.6783 34.6541C24.8424 34.8613 25.0131 35.0397 25.1922 35.17C25.3692 35.2987 25.5903 35.4062 25.8438 35.4062V34.4062ZM25.4805 34.0579C25.1409 33.5706 25.0312 33.2369 25.0312 33.0312H24.0312C24.0312 33.5443 24.281 34.0857 24.6601 34.6296L25.4805 34.0579ZM25.0299 33.0682L25.1236 31.8026L24.1264 31.7287L24.0326 32.9943L25.0299 33.0682ZM25.1229 31.8119C25.188 31.1111 25.2188 29.1607 25.2188 26H24.2188C24.2188 29.183 24.187 31.0764 24.1271 31.7193L25.1229 31.8119ZM25.2188 26C25.2188 24.9699 24.9651 24.102 24.3804 23.4783L23.6509 24.1623C24.0037 24.5386 24.2188 25.1239 24.2188 26H25.2188ZM24.3626 23.4603C22.656 21.8158 21.0585 20.1097 19.57 18.342L18.805 18.9861C20.3165 20.781 21.9378 22.5124 23.6687 24.1804L24.3626 23.4603ZM19.5844 18.36C19.014 17.6153 18.507 17.0394 18.0657 16.6489L17.4031 17.3979C17.7742 17.7263 18.236 18.2441 18.7906 18.9681L19.5844 18.36ZM18.0294 16.6197C17.8371 16.4792 17.7139 16.372 17.6437 16.2965C17.6088 16.2589 17.5981 16.2408 17.5984 16.2413C17.599 16.2424 17.605 16.253 17.6111 16.2725C17.6174 16.2921 17.625 16.3246 17.625 16.3672H16.625C16.625 16.5196 16.6785 16.6461 16.7278 16.7333C16.7788 16.8236 16.8443 16.9052 16.9109 16.9769C17.044 17.1202 17.2254 17.2708 17.4394 17.4271L18.0294 16.6197ZM17.625 16.3672C17.625 16.2723 17.6417 16.2347 17.6448 16.2287C17.6458 16.2267 17.6446 16.2295 17.6405 16.2333C17.6365 16.2371 17.6347 16.2373 17.6392 16.2352L17.2202 15.3273C16.7801 15.5304 16.625 15.9511 16.625 16.3672H17.625ZM17.6154 16.2455C17.8489 16.1521 18.1786 16.0938 18.625 16.0938V15.0938C18.1027 15.0938 17.6354 15.1604 17.244 15.317L17.6154 16.2455ZM18.625 16.0938C18.9805 16.0938 19.2596 16.109 19.4682 16.1364C19.6898 16.1654 19.7842 16.2026 19.8066 16.2154L20.3028 15.3471C20.1064 15.2349 19.8532 15.1783 19.5982 15.1449C19.3303 15.1097 19.0039 15.0938 18.625 15.0938V16.0938ZM19.7641 16.1881C19.8508 16.2501 20.0117 16.4582 20.1942 16.9599L21.134 16.6182C20.9414 16.0887 20.6961 15.6249 20.3453 15.3744L19.7641 16.1881ZM20.1833 16.9264C20.2964 17.3224 20.5368 17.7954 20.8732 18.332C21.2138 18.8752 21.6704 19.5112 22.2391 20.2378L23.0266 19.6215C22.4702 18.9107 22.0362 18.3044 21.7205 17.8008C21.4007 17.2906 21.2192 16.912 21.1448 16.6517L20.1833 16.9264ZM22.2295 20.2252C23.2333 21.5955 24.2704 22.7159 25.3432 23.5774L25.9693 22.7976C24.9796 22.0029 24.0011 20.9514 23.0362 19.6342L22.2295 20.2252ZM26.0509 23.4945C26.9505 22.3379 27.9423 20.74 29.0268 18.7124L28.145 18.2407C27.0733 20.2444 26.112 21.7871 25.2616 22.8805L26.0509 23.4945ZM29.023 18.7194C29.6615 17.5701 30.1314 16.4883 30.4255 15.4753L29.4651 15.1965C29.1967 16.121 28.7604 17.133 28.1489 18.2337L29.023 18.7194ZM30.4128 15.5133C30.4853 15.3221 30.5534 15.224 30.5977 15.1797C30.6077 15.1697 30.6154 15.1636 30.6204 15.16C30.6253 15.1566 30.6278 15.1554 30.628 15.1553C30.6282 15.1553 30.6272 15.1557 30.6256 15.156C30.6241 15.1564 30.6237 15.1562 30.625 15.1562V14.1562C30.0092 14.1562 29.6647 14.6658 29.4778 15.1586L30.4128 15.5133Z" fill="#333333"/>
</svg>

<svg xmlns="http://www.w3.org/2000/svg" width="50" height="50" fill="none"><path fill="#333" d="M30.625 14.656c.375 0 .797.242 1.266.727.53.61.797 1.086.797 1.43 0 .343-.188.617-.563.82-.484.125-1.016.64-1.594 1.547-1.328 1.828-2.492 3.172-3.492 4.03-.344.33-.516.852-.516 1.571 0 4.157.04 6.758.118 7.805.03.344.047.594.047.75 0 .36-.125.758-.375 1.195-.157.25-.313.375-.47.375-.218 0-.476-.187-.773-.562-.36-.516-.539-.953-.539-1.313l.094-1.265c.063-.672.094-2.594.094-5.766 0-.953-.235-1.68-.703-2.18a67.909 67.909 0 0 1-4.828-5.156c-.563-.734-1.047-1.281-1.454-1.64-.406-.297-.609-.516-.609-.657 0-.297.102-.492.305-.586.312-.125.71-.187 1.195-.187.734 0 1.21.062 1.43.187.218.156.422.492.61 1.008.187.656.843 1.703 1.968 3.14.984 1.344 1.992 2.43 3.023 3.259.875-1.125 1.852-2.696 2.93-4.711.625-1.125 1.078-2.172 1.36-3.141.171-.453.398-.68.679-.68Z"/><path fill="#333" d="m31.89 15.383.377-.329-.008-.01-.01-.009-.358.348Zm.235 2.25.125.484.06-.015.053-.03-.238-.44Zm-1.594 1.547.405.294.009-.013.008-.012-.422-.27Zm-3.492 4.03-.326-.378-.01.008-.01.01.346.36Zm-.398 9.376-.5.037.002.008.498-.045Zm-.328 1.945.424.265.005-.008.005-.009-.434-.248Zm-1.243-.187-.41.286.009.012.01.012.391-.31Zm-.539-1.313-.498-.037-.002.019v.018h.5Zm.094-1.265-.498-.047v.01l.498.037Zm-.61-7.946.365-.342-.008-.009-.01-.009-.346.36Zm-4.828-5.156-.396.304.007.01.007.008.383-.322Zm-1.453-1.64.332-.375-.018-.015-.019-.014-.295.403Zm-.304-1.243-.186-.464-.012.005-.012.005.21.454Zm2.625 0 .29-.407-.02-.014-.022-.013-.248.434Zm.61 1.008.48-.137-.005-.017-.006-.017-.47.171Zm1.968 3.14.403-.295-.005-.006-.004-.006-.394.308Zm3.023 3.259-.313.39.396.317.312-.4-.395-.308Zm2.93-4.711-.437-.243-.004.007.44.236Zm1.36-3.141-.468-.177-.007.018-.006.02.48.139Zm.679-.18c.165 0 .463.116.906.574l.719-.695c-.494-.51-1.04-.879-1.625-.879v1Zm.889.555c.252.29.428.533.537.73.114.203.136.32.136.372h1c0-.293-.11-.586-.262-.86a5.467 5.467 0 0 0-.657-.899l-.754.657Zm.674 1.101c0 .114-.042.24-.301.381l.476.88c.49-.266.825-.686.825-1.26h-1ZM32 17.15c-.357.092-.685.314-.985.605-.303.294-.604.684-.905 1.157l.843.538c.277-.434.53-.755.759-.977.23-.224.41-.322.538-.355l-.25-.968Zm-1.873 1.737c-1.32 1.815-2.457 3.123-3.414 3.946l.652.758c1.043-.896 2.234-2.276 3.57-4.116l-.808-.588Zm-3.433 3.963c-.484.462-.67 1.146-.67 1.932h1c0-.651.156-1.014.36-1.208l-.69-.724Zm-.67 1.932c0 4.15.038 6.773.118 7.842l.997-.074c-.076-1.024-.116-3.605-.116-7.768h-1Zm.119 7.85c.03.342.044.573.044.705h1c0-.18-.017-.45-.048-.795l-.996.09Zm.044.705c0 .244-.085.556-.309.947l.869.496c.276-.484.44-.969.44-1.443h-1Zm-.299.93a.654.654 0 0 1-.122.156c-.015.012.014-.016.078-.016v1c.437 0 .723-.339.892-.61l-.848-.53Zm-.044.14c.034 0 .017.014-.064-.045a1.766 1.766 0 0 1-.318-.328l-.784.621c.164.207.335.386.514.516.177.129.398.236.652.236v-1Zm-.364-.348c-.34-.487-.449-.821-.449-1.027h-1c0 .513.25 1.055.63 1.599l.82-.572Zm-.45-.99.094-1.265-.998-.074-.093 1.265.997.074Zm.093-1.256c.065-.7.096-2.651.096-5.812h-1c0 3.183-.032 5.076-.092 5.72l.996.092ZM25.219 26c0-1.03-.254-1.898-.839-2.522l-.73.684c.354.377.569.962.569 1.838h1Zm-.856-2.54a67.373 67.373 0 0 1-4.793-5.118l-.765.644a68.41 68.41 0 0 0 4.864 5.194l.694-.72Zm-4.779-5.1c-.57-.745-1.077-1.32-1.518-1.711l-.663.749c.371.328.833.846 1.388 1.57l.793-.608Zm-1.555-1.74a2.837 2.837 0 0 1-.385-.323c-.035-.038-.046-.056-.046-.056a.312.312 0 0 1 .027.126h-1c0 .153.053.28.103.366.05.09.116.172.183.244.133.143.314.294.528.45l.59-.807Zm-.404-.253a.33.33 0 0 1 .02-.138c0-.002 0 0-.005.004-.003.004-.005.004 0 .002l-.42-.908c-.44.203-.595.624-.595 1.04h1Zm-.01-.122c.234-.093.564-.151 1.01-.151v-1c-.522 0-.99.066-1.381.223l.371.928Zm1.01-.151c.355 0 .635.015.843.042.222.03.316.067.339.08l.496-.869c-.197-.112-.45-.169-.705-.202a7.68 7.68 0 0 0-.973-.051v1Zm1.14.094c.086.062.247.27.43.772l.939-.342c-.193-.53-.438-.993-.789-1.244l-.58.814Zm.418.738c.113.396.354.87.69 1.406.34.543.797 1.18 1.366 1.906l.788-.616c-.557-.711-.99-1.318-1.306-1.821-.32-.51-.502-.889-.576-1.15l-.962.275Zm2.047 3.3c1.003 1.37 2.04 2.49 3.113 3.351l.626-.78c-.99-.794-1.968-1.846-2.933-3.163l-.806.591Zm3.82 3.268c.9-1.156 1.892-2.754 2.977-4.782l-.882-.471c-1.072 2.003-2.033 3.546-2.883 4.64l.789.613Zm2.973-4.775c.639-1.149 1.108-2.23 1.402-3.244l-.96-.278c-.268.924-.705 1.936-1.316 3.037l.874.485Zm1.39-3.206c.072-.19.14-.289.185-.333a.186.186 0 0 1 .022-.02l.008-.005-.002.001h-.001v-1c-.616 0-.96.51-1.147 1.003l.935.354Z"/></svg>
